dist/img/hero/inst.svg

<svg width="30" height="30" viewBox="0 0 30 30" fill="none" xmlns="http://www.w3.org/2000/svg">
<path fill-rule="evenodd" clip-rule="evenodd" d="M0 15C0 6.71575 6.71575 0 15 0C23.2842 0 30 6.71575 30 15C30 23.2842 23.2842 30 15 30C6.71575 30 0 23.2842 0 15ZM15.0007 7C12.8281 7 12.5554 7.0095 11.7021 7.04831C10.8504 7.08731 10.2691 7.22219 9.76038 7.42C9.23419 7.62431 8.78788 7.89769 8.34319 8.3425C7.89819 8.78719 7.62481 9.2335 7.41981 9.7595C7.2215 10.2684 7.0865 10.8499 7.04819 11.7012C7.01 12.5546 7 12.8274 7 15.0001C7 17.1727 7.00969 17.4446 7.04831 18.2979C7.0875 19.1496 7.22231 19.7309 7.42 20.2396C7.6245 20.7658 7.89781 21.2121 8.34269 21.6568C8.78719 22.1018 9.2335 22.3758 9.75937 22.5802C10.2684 22.778 10.8499 22.9128 11.7014 22.9518C12.5548 22.9907 12.8272 23.0002 14.9997 23.0002C17.1726 23.0002 17.4444 22.9907 18.2978 22.9518C19.1494 22.9128 19.7314 22.778 20.2405 22.5802C20.7665 22.3758 21.2121 22.1018 21.6566 21.6568C22.1016 21.2121 22.375 20.7658 22.58 20.2398C22.7767 19.7309 22.9117 19.1494 22.9517 18.2981C22.99 17.4448 23 17.1727 23 15.0001C23 12.8274 22.99 12.5548 22.9517 11.7014C22.9117 10.8497 22.7767 10.2684 22.58 9.75969C22.375 9.2335 22.1016 8.78719 21.6566 8.3425C21.2116 7.8975 20.7666 7.62419 20.24 7.42C19.7299 7.22219 19.1483 7.08731 18.2966 7.04831C17.4432 7.0095 17.1716 7 14.9983 7H15.0007Z" fill="black"/>
<path fill-rule="evenodd" clip-rule="evenodd" d="M14.2831 8.4417C14.4961 8.44138 14.7338 8.4417 15.0008 8.4417C17.1368 8.4417 17.3899 8.44938 18.2334 8.4877C19.0134 8.52338 19.4368 8.6537 19.7188 8.7632C20.0921 8.9082 20.3583 9.08151 20.6381 9.36151C20.9181 9.64151 21.0915 9.9082 21.2368 10.2816C21.3463 10.5632 21.4768 10.9866 21.5123 11.7666C21.5506 12.6099 21.559 12.8633 21.559 14.9983C21.559 17.1333 21.5506 17.3866 21.5123 18.2299C21.4766 19.0099 21.3463 19.4333 21.2368 19.7149C21.0918 20.0883 20.9181 20.3541 20.6381 20.634C20.3581 20.914 20.0923 21.0873 19.7188 21.2323C19.4371 21.3423 19.0134 21.4723 18.2334 21.508C17.3901 21.5463 17.1368 21.5546 15.0008 21.5546C12.8646 21.5546 12.6114 21.5463 11.7681 21.508C10.9881 21.472 10.5647 21.3416 10.2826 21.2321C9.9092 21.0871 9.64251 20.9138 9.36251 20.6338C9.08251 20.3538 8.9092 20.0878 8.76388 19.7143C8.65438 19.4326 8.52388 19.0093 8.48838 18.2293C8.45001 17.3859 8.44238 17.1326 8.44238 14.9963C8.44238 12.8599 8.45001 12.6079 8.48838 11.7646C8.52401 10.9846 8.65438 10.5612 8.76388 10.2792C8.90888 9.90588 9.08251 9.6392 9.36251 9.3592C9.64251 9.0792 9.9092 8.90588 10.2826 8.76051C10.5646 8.65051 10.9881 8.52051 11.7681 8.4847C12.5061 8.45138 12.7921 8.44138 14.2831 8.4397V8.4417ZM19.2711 9.77001C18.7411 9.77001 18.3111 10.1996 18.3111 10.7297C18.3111 11.2597 18.7411 11.6897 19.2711 11.6897C19.8011 11.6897 20.2311 11.2597 20.2311 10.7297C20.2311 10.1997 19.8011 9.77001 19.2711 9.77001ZM15.0008 10.8917C12.7319 10.8917 10.8924 12.7313 10.8924 15.0001C10.8924 17.2689 12.7319 19.1076 15.0008 19.1076C17.2696 19.1076 19.1084 17.2689 19.1084 15.0001C19.1084 12.7313 17.2696 10.8917 15.0008 10.8917Z" fill="black"/>
<path fill-rule="evenodd" clip-rule="evenodd" d="M15.0007 12.3334C16.4734 12.3334 17.6674 13.5272 17.6674 15.0001C17.6674 16.4727 16.4734 17.6667 15.0007 17.6667C13.5279 17.6667 12.334 16.4727 12.334 15.0001C12.334 13.5272 13.5279 12.3334 15.0007 12.3334Z" fill="black"/>
</svg>

<svg width="30" height="30" fill="none" xmlns="http://www.w3.org/2000/svg"><path fill-rule="evenodd" clip-rule="evenodd" d="M0 15C0 6.716 6.716 0 15 0c8.284 0 15 6.716 15 15 0 8.284-6.716 15-15 15-8.284 0-15-6.716-15-15zm15-8c-2.172 0-2.445.01-3.298.048-.852.04-1.433.174-1.942.372a3.917 3.917 0 00-1.417.922A3.928 3.928 0 007.42 9.76c-.199.51-.333 1.09-.372 1.942-.038.854-.048 1.126-.048 3.3 0 2.172.01 2.444.048 3.297.04.852.174 1.433.372 1.942.205.526.478.972.923 1.417.444.445.89.719 1.416.923.51.198 1.09.333 1.942.372.854.039 1.126.048 3.299.048s2.444-.01 3.298-.048c.851-.04 1.433-.174 1.943-.372a3.915 3.915 0 001.416-.923c.445-.445.718-.891.923-1.417.197-.51.332-1.09.372-1.942.038-.853.048-1.125.048-3.298s-.01-2.445-.048-3.299c-.04-.851-.175-1.433-.372-1.941a3.927 3.927 0 00-.923-1.418 3.91 3.91 0 00-1.417-.922c-.51-.198-1.092-.333-1.943-.372C17.443 7.01 17.172 7 14.998 7h.003z" fill="#000"/><path fill-rule="evenodd" clip-rule="evenodd" d="M14.283 8.442h.718c2.136 0 2.389.007 3.232.046.78.035 1.204.166 1.486.275.373.145.64.319.92.599.28.28.453.546.598.92.11.281.24.705.275 1.485.039.843.047 1.096.047 3.231s-.008 2.389-.047 3.232c-.035.78-.166 1.203-.275 1.485-.145.373-.319.64-.599.919-.28.28-.546.453-.92.598-.28.11-.705.24-1.485.276-.843.038-1.096.047-3.232.047s-2.39-.009-3.233-.047c-.78-.036-1.203-.166-1.485-.276a2.478 2.478 0 01-.92-.598 2.48 2.48 0 01-.6-.92c-.109-.281-.24-.705-.275-1.485-.038-.843-.046-1.096-.046-3.233 0-2.136.008-2.388.046-3.231.036-.78.166-1.204.276-1.486.145-.373.319-.64.599-.92.28-.28.546-.453.92-.598.282-.11.705-.24 1.485-.276.738-.034 1.024-.044 2.515-.045v.002zm4.988 1.328a.96.96 0 100 1.92.96.96 0 000-1.92zm-4.27 1.122a4.109 4.109 0 100 8.217 4.109 4.109 0 000-8.217z" fill="#000"/><path fill-rule="evenodd" clip-rule="evenodd" d="M15 12.333a2.667 2.667 0 110 5.334 2.667 2.667 0 010-5.334z" fill="#000"/></svg>
